frontend/src/assets/figma/vector-1785.svg

<svg preserveAspectRatio="none" width="100%" height="100%" overflow="visible" style="display: block;" viewBox="0 0 63.6322 85.8939" fill="none" xmlns="http://www.w3.org/2000/svg">
<path id="Vector" d="M63.6322 0.00734073C61.7781 2.02604 60.4579 3.92362 59.5473 5.39544C58.8854 6.46718 57.8943 8.08949 57.002 10.3908C56.0804 12.7692 55.744 14.6264 55.4222 16.3992C54.592 21.0018 54.7529 24.5401 54.8444 25.9018C54.8992 26.7423 54.976 27.4286 55.0345 27.8911H39.5946C39.8615 25.5237 40.1541 23.3435 40.465 20.9174H21.2327V85.8939H0V8.57764H0.00731561V0H47.5596L63.6322 0.00734073Z" fill="var(--fill-0, white)"/>
</svg>

<svg xmlns="http://www.w3.org/2000/svg" fill="none" overflow="visible" preserveAspectRatio="none" style="display:block" viewBox="0 0 63.632 85.894"><path fill="var(--fill-0, white)" d="M63.632.007a36 36 0 0 0-4.085 5.388c-.662 1.072-1.653 2.694-2.545 4.996-.922 2.378-1.258 4.235-1.58 6.008-.83 4.603-.67 8.141-.578 9.503.055.84.132 1.527.19 1.99h-15.44c.267-2.368.56-4.549.871-6.975H21.233v64.977H0V8.578h.007V0H47.56z"/></svg>
